flaticon/household/door-4.svg

<svg xmlns="http://www.w3.org/2000/svg" width="32" height="32" viewBox="0 0 24 24">
    <path d="M4 2.800781L4 15.601562 13.601562 15.601562 13.601562 2.800781zM8.398438 3.601562L8.398438 6.800781 4.800781 6.800781 4.800781 3.601562zM12.800781 10.800781L9.199219 10.800781 9.199219 7.601562 12.800781 7.601562zM8.398438 10.800781L4.800781 10.800781 4.800781 7.601562 8.398438 7.601562zM4.800781 11.601562L8.398438 11.601562 8.398438 14.800781 4.800781 14.800781zM9.199219 14.800781L9.199219 11.601562 12.800781 11.601562 12.800781 14.800781zM12.800781 6.800781L9.199219 6.800781 9.199219 3.601562 12.800781 3.601562zM4 22.398438L13.601562 22.398438 13.601562 16.398438 4 16.398438zM4.800781 17.199219L12.800781 17.199219 12.800781 21.601562 4.800781 21.601562zM4.800781 17.199219"/>
    <path d="M 22.398438 20.800781 L 22.398438 20.398438 L 22.800781 20.398438 L 22.800781 18.398438 L 20.800781 18.398438 L 20.800781 15.882812 C 20.824219 15.871094 20.84375 15.863281 20.867188 15.851562 C 21.511719 15.519531 21.964844 15.007812 22.144531 14.414062 C 22.269531 14.003906 22.242188 13.53125 22.074219 13.140625 C 21.988281 12.945312 21.992188 12.730469 22.089844 12.601562 C 22.222656 12.414062 22.34375 12.191406 22.445312 11.929688 C 22.628906 11.476562 22.679688 11.082031 22.609375 10.726562 C 22.570312 10.523438 22.472656 10.324219 22.34375 10.167969 C 22.269531 10.078125 22.238281 9.9375 22.261719 9.820312 C 22.332031 9.496094 22.289062 9.148438 22.140625 8.863281 C 21.90625 8.410156 21.433594 8.09375 20.882812 8.015625 C 20.414062 7.949219 20.011719 8.070312 19.765625 8.328125 L 19.554688 8.507812 C 19.1875 8.707031 18.910156 9.089844 18.828125 9.53125 C 18.785156 9.769531 18.796875 10.023438 18.871094 10.261719 C 18.910156 10.394531 18.878906 10.550781 18.785156 10.6875 C 18.367188 11.304688 18.28125 12.171875 18.574219 12.835938 C 18.621094 12.9375 18.675781 13.03125 18.738281 13.121094 C 18.832031 13.242188 18.863281 13.410156 18.828125 13.5625 C 18.804688 13.644531 18.792969 13.726562 18.785156 13.8125 C 18.753906 14.167969 18.824219 14.519531 18.886719 14.796875 C 18.945312 15.089844 19.039062 15.535156 19.371094 15.820312 C 19.546875 15.96875 19.761719 16.046875 20 16.0625 L 20 18.398438 L 18 18.398438 L 18 20.398438 L 18.402344 20.398438 L 18.402344 20.800781 L 16.402344 20.800781 L 16.402344 0 L 1.199219 0 L 1.199219 20.800781 L 0 20.800781 L 0 24 L 24 24 L 24 20.800781 Z M 19.667969 14.632812 C 19.613281 14.382812 19.558594 14.121094 19.582031 13.882812 C 19.585938 13.839844 19.589844 13.796875 19.601562 13.753906 C 19.699219 13.371094 19.613281 12.957031 19.378906 12.640625 C 19.351562 12.605469 19.328125 12.558594 19.308594 12.515625 C 19.125 12.097656 19.179688 11.53125 19.449219 11.136719 C 19.675781 10.800781 19.742188 10.398438 19.636719 10.035156 C 19.601562 9.917969 19.59375 9.789062 19.613281 9.675781 C 19.652344 9.46875 19.785156 9.285156 19.949219 9.207031 L 20.3125 8.910156 C 20.398438 8.820312 20.535156 8.800781 20.640625 8.800781 C 20.691406 8.800781 20.738281 8.804688 20.769531 8.808594 C 21.066406 8.851562 21.3125 9.007812 21.429688 9.230469 C 21.492188 9.351562 21.511719 9.511719 21.480469 9.652344 C 21.402344 10.011719 21.496094 10.394531 21.726562 10.675781 C 21.773438 10.734375 21.808594 10.808594 21.824219 10.886719 C 21.863281 11.082031 21.824219 11.328125 21.703125 11.636719 C 21.625 11.832031 21.539062 12 21.441406 12.132812 C 21.179688 12.492188 21.140625 13 21.339844 13.457031 C 21.433594 13.675781 21.449219 13.953125 21.378906 14.183594 C 21.222656 14.703125 20.761719 15.007812 20.5 15.140625 C 20.449219 15.167969 20.390625 15.191406 20.335938 15.210938 C 20.296875 15.21875 20.261719 15.226562 20.226562 15.242188 C 20.09375 15.273438 19.96875 15.277344 19.890625 15.210938 C 19.765625 15.105469 19.707031 14.820312 19.667969 14.632812 Z M 18.800781 19.199219 L 22 19.199219 L 22 19.601562 L 18.800781 19.601562 Z M 1.199219 23.199219 L 0.800781 23.199219 L 0.800781 21.601562 L 1.199219 21.601562 Z M 3.199219 23.199219 L 3.199219 2 L 14.398438 2 L 14.398438 23.199219 Z M 15.601562 23.199219 L 15.199219 23.199219 L 15.199219 1.199219 L 2.398438 1.199219 L 2.398438 23.199219 L 2 23.199219 L 2 0.800781 L 15.601562 0.800781 Z M 18.398438 23.199219 L 16.398438 23.199219 L 16.398438 21.601562 L 18.398438 21.601562 Z M 21.601562 23.199219 L 19.199219 23.199219 L 19.199219 20.398438 L 21.601562 20.398438 Z M 23.199219 23.199219 L 22.398438 23.199219 L 22.398438 21.601562 L 23.199219 21.601562 Z M 23.199219 23.199219"/>
</svg>

<svg xmlns="http://www.w3.org/2000/svg" width="32" height="32" viewBox="0 0 24 24">
    <path d="M4 2.8v12.802h9.602V2.8zm4.398.802V6.8H4.801V3.6zm4.403 7.199H9.199V7.6h3.602zm-4.403 0H4.801V7.6h3.597zm-3.597.8h3.597v3.2H4.801zm4.398 3.2v-3.2h3.602v3.2zm3.602-8H9.199V3.6h3.602zm0 0M4 22.398h9.602v-6H4zm.8-5.199h8v4.403h-8zm0 0"/>
    <path d="M22.398 20.8v-.402h.403v-2h-2v-2.515c.023-.012.043-.02.066-.031.645-.332 1.098-.844 1.278-1.438.125-.41.097-.883-.07-1.273-.087-.196-.083-.41.015-.54.133-.187.254-.41.355-.671.184-.453.235-.848.164-1.203a1.278 1.278 0 0 0-.265-.559.439.439 0 0 1-.082-.348 1.44 1.44 0 0 0-.121-.957c-.235-.453-.707-.77-1.258-.847-.469-.067-.871.054-1.117.312l-.211.18c-.367.199-.645.582-.727 1.023-.043.239-.031.492.043.73a.51.51 0 0 1-.086.427c-.418.617-.504 1.484-.21 2.148.046.101.1.195.163.285.094.121.125.29.09.441a1.339 1.339 0 0 0-.043.25c-.031.356.04.708.102.985.058.293.152.738.484 1.023.176.149.39.227.629.242v2.336h-2v2h.402v.403h-2V0H1.2v20.8H0V24h24v-3.2zm-2.73-6.167c-.055-.25-.11-.512-.086-.75.004-.043.008-.086.02-.13a1.332 1.332 0 0 0-.223-1.112.646.646 0 0 1-.07-.125c-.184-.418-.13-.985.14-1.38.227-.335.293-.738.188-1.1a.806.806 0 0 1-.024-.36.66.66 0 0 1 .336-.469l.363-.297c.086-.09.223-.11.329-.11.05 0 .097.005.129.009.296.043.543.199.66.421a.649.649 0 0 1 .05.422c-.078.36.016.743.247 1.024a.5.5 0 0 1 .097.21c.04.196 0 .442-.12.75a2.258 2.258 0 0 1-.263.497c-.261.36-.3.867-.101 1.324.094.219.11.496.039.727-.156.52-.617.824-.879.957-.05.027-.11.05-.164.07a.504.504 0 0 0-.11.031c-.132.031-.257.035-.335-.031-.125-.106-.184-.39-.223-.578zm-.867 4.566H22v.403h-3.2zm-17.602 4H.801v-1.597h.398zm2 0V2h11.2v21.2zm12.403 0h-.403v-22H2.4v22H2V.801h13.602zm2.796 0h-2v-1.597h2zm3.204 0h-2.403v-2.8h2.403zm1.597 0h-.8v-1.597h.8zm0 0"/>
</svg>
